src/resources/assets/history.svg

<svg width="16" height="16" xmlns="http://www.w3.org/2000/svg">
    <path d="m 8,2 c 3.313708,0 6,2.6862915 6,6 0,3.313708 -2.686292,6 -6,6 C 6.8602583,14 5.7662987,13.681196 4.8205374,13.089188 4.4352938,12.848042 4.0784647,12.563784 3.7571101,12.242391 3.435266,11.92051 3.1506748,11.563051 2.9093392,11.177109 2.3182672,10.23187 2,9.138783 2,8 2,7.8172307 2.0081866,7.6353881 2.0244644,7.4548474 2.0492611,7.1798207 2.2923162,6.9769691 2.567343,7.0017659 2.8423697,7.0265627 3.0452212,7.2696177 3.0204244,7.5446445 3.0068377,7.6953387 3,7.8472187 3,8 c 0,0.9499109 0.2648447,1.859519 0.7572174,2.646918 0.2012061,0.321767 0.4385679,0.619904 0.7070408,0.888408 0.2680647,0.268096 0.5656766,0.50518 0.8868624,0.706229 C 6.138957,12.734708 7.0492907,13 8,13 10.761424,13 13,10.761424 13,8 13,5.2385763 10.761424,3 8,3 6.4018052,3 4.9330168,3.7552073 3.9984967,5.0013087 l 1.8376278,8.69e-5 c 0.2761424,0 0.5,0.2238576 0.5,0.5 0,0.2531305 -0.1881026,0.4623273 -0.4321529,0.4954356 l -0.067847,0.00456 H 2.8333333 c -0.2531305,0 -0.4623273,-0.1881026 -0.4954356,-0.432153 l -0.00456,-0.067847 v -3 c 0,-0.2761424 0.2238577,-0.5 0.5,-0.5 0.2531305,0 0.4623273,0.1881026 0.4954356,0.432153 l 0.00456,0.067847 -6.655e-4,1.7275916 C 4.4572462,2.8373559 6.1575185,2 8,2 Z M 7.5,4.6666667 c 0.253,0 0.4623055,0.1882222 0.4954329,0.4321828 L 8,5.1666667 V 8 H 9.5 C 9.776,8 10,8.224 10,8.5 10,8.753 9.811778,8.9623055 9.567817,8.9954329 L 9.5,9 h -2 C 7.247,9 7.0376945,8.8117778 7.0045671,8.5678171 L 7,8.5 V 5.1666667 c 0,-0.276 0.224,-0.5 0.5,-0.5 z"
          fill="#ddd" stroke-width=".667"/>
</svg>

<?xml version="1.0" encoding="UTF-8"?>
<svg xmlns="http://www.w3.org/2000/svg" xmlns:xlink="http://www.w3.org/1999/xlink" width="16px" height="16px" viewBox="0 0 16 16" version="1.1">
<g id="surface1">
<path style=" stroke:none;fill-rule:nonzero;fill:rgb(86.666667%,86.666667%,86.666667%);fill-opacity:1;" d="M 8 2 C 11.3125 2 14 4.6875 14 8 C 14 11.3125 11.3125 14 8 14 C 6.859375 14 5.765625 13.679688 4.820312 13.089844 C 4.433594 12.847656 4.078125 12.5625 3.757812 12.242188 C 3.433594 11.921875 3.152344 11.5625 2.910156 11.175781 C 2.316406 10.230469 2 9.140625 2 8 C 2 7.816406 2.007812 7.636719 2.023438 7.453125 C 2.050781 7.179688 2.292969 6.976562 2.566406 7 C 2.84375 7.027344 3.046875 7.269531 3.019531 7.542969 C 3.007812 7.695312 3 7.847656 3 8 C 3 8.949219 3.265625 9.859375 3.757812 10.648438 C 3.957031 10.96875 4.195312 11.265625 4.464844 11.535156 C 4.730469 11.804688 5.03125 12.039062 5.351562 12.242188 C 6.140625 12.734375 7.050781 13 8 13 C 10.761719 13 13 10.761719 13 8 C 13 5.238281 10.761719 3 8 3 C 6.402344 3 4.933594 3.753906 4 5 L 5.835938 5 C 6.113281 5 6.335938 5.226562 6.335938 5.5 C 6.335938 5.753906 6.148438 5.964844 5.902344 5.996094 L 5.835938 6 L 2.832031 6 C 2.582031 6 2.371094 5.8125 2.339844 5.570312 L 2.332031 5.5 L 2.332031 2.5 C 2.332031 2.226562 2.558594 2 2.832031 2 C 3.085938 2 3.296875 2.191406 3.328125 2.433594 L 3.332031 2.5 L 3.332031 4.230469 C 4.457031 2.835938 6.15625 2 8 2 Z M 7.5 4.667969 C 7.753906 4.667969 7.960938 4.855469 7.996094 5.097656 L 8 5.167969 L 8 8 L 9.5 8 C 9.777344 8 10 8.222656 10 8.5 C 10 8.753906 9.8125 8.960938 9.566406 8.996094 L 9.5 9 L 7.5 9 C 7.246094 9 7.039062 8.8125 7.003906 8.566406 L 7 8.5 L 7 5.167969 C 7 4.890625 7.222656 4.667969 7.5 4.667969 Z M 7.5 4.667969 "/>
</g>
</svg>
